icon-themes/breeze_svg/cmd/32/extrusion3dcolor.svg

<svg viewBox="0 0 32 32" xmlns="http://www.w3.org/2000/svg"><path d="m12 3-7 6h16v14l7-6v-14z" fill="#b3b3b3"/><path d="m11 3-7 6v14h17l7-6v-14zm.371094 1h1.628906 13.230469l-5.833985 5h-14.8593746zm15.628906.65625v11.34375.539062l-6 5.144532v-11.8847659zm-22 5.34375h15v12h-15zm-1 15v2h24v-2z" fill="#4d4d4d"/></svg>

<svg xmlns="http://www.w3.org/2000/svg" viewBox="0 0 32 32">
 <path 
     style="fill:#b3b3b3" 
     d="M 12 3 L 5 9 L 21 9 L 21 23 L 28 17 L 28 3 L 12 3 z "
     />
 <path 
     style="fill:#4d4d4d" 
     d="M 11 3 L 4 9 L 4 23 L 21 23 L 28 17 L 28 3 L 11 3 z M 11.371094 4 L 13 4 L 26.230469 4 L 20.396484 9 L 5.5371094 9 L 11.371094 4 z M 27 4.65625 L 27 16 L 27 16.539062 L 21 21.683594 L 21 9.7988281 L 27 4.65625 z M 5 10 L 20 10 L 20 22 L 5 22 L 5 10 z M 4 25 L 4 27 L 28 27 L 28 25 L 4 25 z "
     />
</svg>
